X: 1
T: Kilworth Hills
R: waltz
M: 3/4
L: 1/8
K: Amaj
|:"A"A>ce2e2|"D"f>d"A"e2c2|"A"d>cA3c|"A"e>c"E7"B4|
"A"A>ce2e2|"D"f>d"A"e2c2|"A"A>ce3B|"E7"d<c"A"A4:|
|:"D"f>ef3g|"D"a>f"A"e2c2|"A"d>cA3c|"A"e>c"E7"B4|
"A"e>d c3d|"A"e>f e2c2|"A"A>ce3B|"E7"d<c"A"A4:|
|:B"E7">cd2d2|"E7"e>dd2"A"c2|"A"c2 A3c|"A"e>c"E7"B4|
"D"d>ef2f2|"E7"e>dd2"A"c2|"A"A>ce3B|"E7"d<c"A"A4:|
|:"A"a>g"D"f3g|"D" a>f"A"e2c2|"A"f>ec3f|"A"e>c"E7"B4|
"A"c>B A3c|"A" e>f e2 c2|"A"A>ce3B|"E7"d<c"A"A4:|

